geofa_plugin/geofa_symboler/Friluftsliv, punkt/TERAPIHAVE.svg

<svg xmlns="http://www.w3.org/2000/svg" width="5.5mm" height="5.5mm" viewBox="0 0 15.591 15.591">
  <rect width="15.591" height="15.591" rx="7.795" fill="#427c7f"/>
  <path d="M3.56,4.616A1.017,1.017,0,0,1,4.636,5.974,1.017,1.017,0,0,1,3.56,4.616m-.7,2.352a1.015,1.015,0,0,1,1.717-.223A1.015,1.015,0,0,1,2.855,6.968ZM6.077,4.487A1.016,1.016,0,0,1,5.4,6.079,1.016,1.016,0,0,1,6.077,4.487Zm5.953.129a1.016,1.016,0,0,1-1.075,1.358A1.016,1.016,0,0,1,12.03,4.616Zm.706,2.352a1.016,1.016,0,0,0-1.718-.223A1.016,1.016,0,0,0,12.736,6.968ZM9.513,4.487A1.015,1.015,0,0,1,10.2,6.079,1.016,1.016,0,0,1,9.513,4.487ZM7.8,3.451a1.015,1.015,0,0,0,0-1.732A1.016,1.016,0,0,0,7.8,3.451ZM9.839,3.2a1.016,1.016,0,0,1-1.53.813A1.016,1.016,0,0,1,9.839,3.2Zm-4.087,0a1.016,1.016,0,0,1,1.53.813A1.016,1.016,0,0,1,5.752,3.2ZM7.8,3.71a.231.231,0,0,0-.223.22L7.1,8.191,5.14,6.243a.224.224,0,0,0-.351.278L6.9,9.959l-.4,3.582c-.021.174.051.32.243.33H8.839c.193-.01.265-.156.244-.33l-.4-3.582L10.8,6.521a.224.224,0,0,0-.351-.278L8.491,8.191,8.019,3.93A.232.232,0,0,0,7.8,3.71Z" fill="#fff" fill-rule="evenodd"/>
</svg>

<?xml version="1.0" encoding="UTF-8"?>
<svg xmlns="http://www.w3.org/2000/svg" viewBox="0 0 15.59 15.59">
  <defs>
    <style>
      .cls-1 {
        fill: #fff;
        fill-rule: evenodd;
      }

      .cls-1, .cls-2 {
        stroke-width: 0px;
      }

      .cls-2 {
        fill: #071f39;
      }
    </style>
  </defs>
  <g id="Cirkel">
    <rect class="cls-2" x="0" y="0" width="15.59" height="15.59" rx="7.8" ry="7.8"/>
  </g>
  <g id="ICONS">
    <path class="cls-1" d="M3.56,4.62c.75-.1,1.34.65,1.08,1.36-.75.1-1.34-.65-1.08-1.36M2.85,6.97c.3-.69,1.25-.81,1.72-.22-.3.69-1.25.81-1.72.22ZM6.08,4.49c.44.61.06,1.49-.68,1.59-.44-.61-.06-1.49.68-1.59ZM12.03,4.62c.27.7-.33,1.46-1.08,1.36-.27-.7.33-1.46,1.08-1.36ZM12.74,6.97c-.3-.69-1.25-.81-1.72-.22.3.69,1.25.81,1.72.22ZM9.51,4.49c.75.1,1.12.98.68,1.59-.75-.1-1.12-.98-.68-1.59ZM7.8,3.45c.65-.39.65-1.35,0-1.73-.65.39-.65,1.35,0,1.73ZM9.84,3.2c-.04.75-.89,1.2-1.53.81.04-.75.89-1.2,1.53-.81ZM5.75,3.2c.64-.39,1.49.06,1.53.81-.64.39-1.49-.06-1.53-.81ZM7.8,3.71c-.1,0-.2.07-.22.22l-.47,4.26-1.96-1.95c-.11-.1-.23-.1-.31-.03-.08.06-.11.18-.04.31l2.12,3.44-.4,3.58c-.02.17.05.32.24.33h2.09c.19-.01.26-.16.24-.33l-.4-3.58,2.12-3.44c.07-.13.04-.25-.04-.31-.08-.06-.2-.07-.31.03l-1.96,1.95-.47-4.26c-.02-.15-.12-.22-.22-.22Z"/>
  </g>
</svg>
